X:1
T:The Swallow’s Tail
L:1/8
M:4/4
I:linebreak $
K:Emin
V:1 treble 
V:1
 ed | BcBA BE E2 | BABc d3 B | dBAF AD D2 | FDFA d2 ed | BcBA BE E2 | BABc d3 B |$ edBA edBA | %8
 B2 AF E2 :| GA | Beed e2 dB | BABc d3 B | dBAF AD D2 | FDFA d2 ed |$ Beed Beed | BABc d3 B | %16
 edBA edBA | B2 AF E2 :| %18
